X:178
T:Harlequin Neptune. THO5.178
M:C
L:1/8
N:Spurious pick up before bar nine removed
B:Thompson's Complete Collection of 200 Favourite Dances Vol.5
F:https://www.libraryofdance.org/manuals/1780c-Thompson-Compleat-5.pdf
Z:vmp. Peter Dunk 2024
Q:1/4=140
K:D
dAFD dAFD|dAFD E2E2|dAFD EFGA|BGFE D2D2:|
|:"^NB"fdfa gecA|fdfa g2g2|fdfa gbeg|fedc d2d2:|
W:
W:The 1st Gent turn the 2nd Lady ./.
W:the 1st Lady turn the 2nd Gent ./:
W:Cross over 1 Couple :/.
W:Right & Left :/:

